X: 651
T: Erin's hope
C: anon.
O: Ireland
B: Francis O'Neill: "The Dance Music of Ireland" (1907) no. 651
R: Reel
Z: Transcribed by Frank Nordberg - http://www.musicaviva.com
F: http://www.musicaviva.com/abc/tunes/ireland/oneill-1001/oneill-1001-065
1.abc
m: Nn2 = n/o/n/m/
M: C|
L: 1/8
K: G
dc"^segno" |:(3(BcB) AG (3(Bcd) AG|FADA FADc|[1(3(BcB) AG BdAG|FDEF GBdc:
|[2(3(BcB) AG (3(gfe) dc|BdAF G2||
|:f2|("^ ~"Ng2g)d BGBd|gfeg fgaf|[1("^ ~"Ng2g)d (3(Bcd) AG|FADA FADF:|[2(
3(fab) af gedc|BdAG FAdc "^segno" |]
W:
W:
W: From Musica Viva - http://www.musicaviva.com
W: the Internet center for free sheet music downloads.


